X:106
T: STOLZ HEINREICH DER WOLLT FREIEN GEHN
N: Z0106
O: Europa, Mitteleuropa, Deutschland, Nord - Deutsch
R: Sagen - Lied, Romanze, Tod
M: 2/4
L: 1/16
K: E
B,2 | E2E2EGBG | FEDCB,2
B,2 | E2F2G2G2 | F4z2
FG | A2AAA2GF | B3cA2
GF | E2E2D2EF | E4z2

